2 Export/Icons/Rounded/Persons.svg

<svg xmlns="http://www.w3.org/2000/svg" xmlns:xlink="http://www.w3.org/1999/xlink" width="24" height="24" viewBox="0 0 24 24">
  <defs>
    <path id="persons-a" d="M16 11c1.66 0 2.99-1.34 2.99-3S17.66 5 16 5c-1.66 0-3 1.34-3 3s1.34 3 3 3zm-8 0c1.66 0 2.99-1.34 2.99-3S9.66 5 8 5C6.34 5 5 6.34 5 8s1.34 3 3 3zm0 2c-2.33 0-7 1.17-7 3.5V18c0 .55.45 1 1 1h12c.55 0 1-.45 1-1v-1.5c0-2.33-4.67-3.5-7-3.5zm8 0c-.29 0-.62.02-.97.05.02.01.03.03.04.04 1.14.83 1.93 1.94 1.93 3.41V18c0 .35-.07.69-.18 1H22c.55 0 1-.45 1-1v-1.5c0-2.33-4.67-3.5-7-3.5z"/>
  </defs>
  <g fill="none" fill-rule="evenodd">
    <polygon points="0 0 24 0 24 24 0 24"/>
    <mask id="persons-b" fill="#fff">
      <use xlink:href="#persons-a"/>
    </mask>
    <use fill="#000" xlink:href="#persons-a"/>
    <g fill="#000" mask="url(#persons-b)">
      <rect width="24" height="24"/>
    </g>
  </g>
</svg>

<svg xmlns="http://www.w3.org/2000/svg" xmlns:xlink="http://www.w3.org/1999/xlink" width="24" height="24" viewBox="0 0 24 24">
  <defs>
    <path id="persons-a" d="M16,11 C17.66,11 18.99,9.66 18.99,8 C18.99,6.34 17.66,5 16,5 C14.34,5 13,6.34 13,8 C13,9.66 14.34,11 16,11 Z M8,11 C9.66,11 10.99,9.66 10.99,8 C10.99,6.34 9.66,5 8,5 C6.34,5 5,6.34 5,8 C5,9.66 6.34,11 8,11 Z M8,13 C5.67,13 1,14.17 1,16.5 L1,18 C1,18.55 1.45,19 2,19 L14,19 C14.55,19 15,18.55 15,18 L15,16.5 C15,14.17 10.33,13 8,13 Z M16,13 C15.71,13 15.38,13.02 15.03,13.05 C15.05,13.06 15.06,13.08 15.07,13.09 C16.21,13.92 17,15.03 17,16.5 L17,18 C17,18.35 16.93,18.69 16.82,19 L22,19 C22.55,19 23,18.55 23,18 L23,16.5 C23,14.17 18.33,13 16,13 Z"/>
  </defs>
  <g fill="none" fill-rule="evenodd">
    <polygon points="0 0 24 0 24 24 0 24"/>
    <mask id="persons-b" fill="#fff">
      <use xlink:href="#persons-a"/>
    </mask>
    <use fill="#000" xlink:href="#persons-a"/>
    <g fill="#000" mask="url(#persons-b)">
      <rect width="24" height="24"/>
    </g>
  </g>
</svg>
